france-cool.svg

<svg height="128pt" viewBox="0 0 128 128" width="128pt" xmlns="http://www.w3.org/2000/svg"><path d="m100.19.0h.4c2.8 2.34 6.11 4.15 8.33 7.13 2.49 2.93 3.49 6.76 3.89 10.5.49 5.51-1.95 10.84-1.29 16.31.55 3.8 5.6 5.13 8.51 3.12 4.21-2.62 5.12-7.83 6.16-12.28.79 1.87 1.38 3.82 1.81 5.8v8.92c-1.13 6.74-4 13.23-8.75 18.2-.59-4.16-1.45-8.32-3.13-12.2-1.19 2.21-1.83 5.22-4.45 6.18-2.39 1.26-5.97-.03-6.46-2.82-.95-4.22-.68-8.97-3.42-12.6-1.93-2.92-5.18-4.43-8.3-5.71.63 3.7 1.79 7.61.45 11.3-1.36 3.9-5.74 6.95-9.9 5.92-3.16-1-3.31-4.83-4.32-7.44-4.38 4.79-6.87 11.2-6.36 17.73-5.86-6.17-9.38-14.52-9.3-23.06.25-6.09 2.16-12.07 5.41-17.22.66-1.03 1.35-2.05 2.06-3.05-.18.77-.54 2.3-.72 3.07-.8 3.81-.82 8.43 2.06 11.42 2.85 3.04 8.57 1.33 9.75-2.52.9-3.04-.5-6.05-1.3-8.93-1.3-5.23 1.01-10.58 4.87-14.11-.25 3.48-.42 7.39 1.95 10.26 2.76 3.82 9.32 4.37 12.09.27 3.19-4.22 1.27-9.66-.04-14.19z" fill="#f4900c"/><path d="m0 30.19c.96-6.42 6.42-12.02 13.03-12.31 9.77-.21 19.55-.01 29.32-.08.01 30.8.01 61.6.0 92.4-9.46-.03-18.92.05-28.38-.02-7.03.13-13.14-5.72-13.97-12.58z" fill="#002495"/><g fill="#eee"><path d="m42.35 17.8c9.04-.01 18.08.03 27.12-.02-3.25 5.15-5.16 11.13-5.41 17.22-.08 8.54 3.44 16.89 9.3 23.06 3.44 3.49 7.77 5.94 12.26 7.83-.02 14.77-.01 29.54.0 44.31-14.42.0-28.85.0-43.27.0.01-30.8.01-61.6.0-92.4z"/><path d="m72.87 29.22c-2.88-2.99-2.86-7.61-2.06-11.42 3.5.0 7 .02 10.51-.03.8 2.88 2.2 5.89 1.3 8.93-1.18 3.85-6.9 5.56-9.75 2.52z"/></g><g fill="#ed2939"><path d="m112.81 17.63c5.36-.04 10.51 2.59 13.38 7.15-1.04 4.45-1.95 9.66-6.16 12.28-2.91 2.01-7.96.68-8.51-3.12-.66-5.47 1.78-10.8 1.29-16.31z"/><path d="m119.25 57.7c4.75-4.97 7.62-11.46 8.75-18.2v57.99c-.76 6.92-6.93 12.83-13.99 12.69-9.46.07-18.93-.01-28.39.02-.01-14.77-.02-29.54.0-44.31 11.51 4.36 25.3.77 33.63-8.19z"/></g><path d="m93.49 30.55c3.12 1.28 6.37 2.79 8.3 5.71 2.74 3.63 2.47 8.38 3.42 12.6.49 2.79 4.07 4.08 6.46 2.82 2.62-.96 3.26-3.97 4.45-6.18 1.68 3.88 2.54 8.04 3.13 12.2-8.33 8.96-22.12 12.55-33.63 8.19-4.49-1.89-8.82-4.34-12.26-7.83-.51-6.53 1.98-12.94 6.36-17.73 1.01 2.61 1.16 6.44 4.32 7.44 4.16 1.03 8.54-2.02 9.9-5.92 1.34-3.69.18-7.6-.45-11.3z" fill="#ffcc4d"/></svg>

<?xml version="1.0" encoding="UTF-8" standalone="no"?>
<!DOCTYPE svg PUBLIC "-//W3C//DTD SVG 1.1//EN" "http://www.w3.org/Graphics/SVG/1.1/DTD/svg11.dtd">
<svg width="100%" height="100%" viewBox="0 0 128 111" version="1.1" xmlns="http://www.w3.org/2000/svg" xmlns:xlink="http://www.w3.org/1999/xlink" xml:space="preserve" xmlns:serif="http://www.serif.com/" style="fill-rule:evenodd;clip-rule:evenodd;stroke-linejoin:round;stroke-miterlimit:2;">
    <path d="M100.19,0L100.59,0C103.39,2.34 106.7,4.15 108.92,7.13C111.41,10.06 112.41,13.89 112.81,17.63C113.3,23.14 110.86,28.47 111.52,33.94C112.07,37.74 117.12,39.07 120.03,37.06C124.24,34.44 125.15,29.23 126.19,24.78C126.98,26.65 127.57,28.6 128,30.58L128,39.5C126.87,46.24 124,52.73 119.25,57.7C118.66,53.54 117.8,49.38 116.12,45.5C114.93,47.71 114.29,50.72 111.67,51.68C109.28,52.94 105.7,51.65 105.21,48.86C104.26,44.64 104.53,39.89 101.79,36.26C99.86,33.34 96.61,31.83 93.49,30.55C94.12,34.25 95.28,38.16 93.94,41.85C92.58,45.75 88.2,48.8 84.04,47.77C80.88,46.77 80.73,42.94 79.72,40.33C75.34,45.12 72.85,51.53 73.36,58.06C67.5,51.89 63.98,43.54 64.06,35C64.31,28.91 66.22,22.93 69.47,17.78C70.13,16.75 70.82,15.73 71.53,14.73C71.35,15.5 70.99,17.03 70.81,17.8C70.01,21.61 69.99,26.23 72.87,29.22C75.72,32.26 81.44,30.55 82.62,26.7C83.52,23.66 82.12,20.65 81.32,17.77C80.02,12.54 82.33,7.19 86.19,3.66C85.94,7.14 85.77,11.05 88.14,13.92C90.9,17.74 97.46,18.29 100.23,14.19C103.42,9.97 101.5,4.53 100.19,-0Z" style="fill:rgb(244,144,12);fill-rule:nonzero;"/>
    <path d="M0,30.19C0.96,23.77 6.42,18.17 13.03,17.88C22.8,17.67 32.58,17.87 42.35,17.8C42.36,48.6 42.36,79.4 42.35,110.2C32.89,110.17 23.43,110.25 13.97,110.18C6.94,110.31 0.83,104.46 0,97.6L0,30.19Z" style="fill:rgb(0,36,149);fill-rule:nonzero;"/>
    <path d="M42.35,17.8C51.39,17.79 60.43,17.83 69.47,17.78C66.22,22.93 64.31,28.91 64.06,35C63.98,43.54 67.5,51.89 73.36,58.06C76.8,61.55 81.13,64 85.62,65.89C85.6,80.66 85.61,95.43 85.62,110.2L42.35,110.2C42.36,79.4 42.36,48.6 42.35,17.8Z" style="fill:rgb(238,238,238);fill-rule:nonzero;"/>
    <path d="M72.87,29.22C69.99,26.23 70.01,21.61 70.81,17.8C74.31,17.8 77.81,17.82 81.32,17.77C82.12,20.65 83.52,23.66 82.62,26.7C81.44,30.55 75.72,32.26 72.87,29.22Z" style="fill:rgb(238,238,238);fill-rule:nonzero;"/>
    <path d="M112.81,17.63C118.17,17.59 123.32,20.22 126.19,24.78C125.15,29.23 124.24,34.44 120.03,37.06C117.12,39.07 112.07,37.74 111.52,33.94C110.86,28.47 113.3,23.14 112.81,17.63Z" style="fill:rgb(237,41,57);fill-rule:nonzero;"/>
    <path d="M119.25,57.7C124,52.73 126.87,46.24 128,39.5L128,97.49C127.24,104.41 121.07,110.32 114.01,110.18C104.55,110.25 95.08,110.17 85.62,110.2C85.61,95.43 85.6,80.66 85.62,65.89C97.13,70.25 110.92,66.66 119.25,57.7Z" style="fill:rgb(237,41,57);fill-rule:nonzero;"/>
    <path d="M93.49,30.55C96.61,31.83 99.86,33.34 101.79,36.26C104.53,39.89 104.26,44.64 105.21,48.86C105.7,51.65 109.28,52.94 111.67,51.68C114.29,50.72 114.93,47.71 116.12,45.5C117.8,49.38 118.66,53.54 119.25,57.7C110.92,66.66 97.13,70.25 85.62,65.89C81.13,64 76.8,61.55 73.36,58.06C72.85,51.53 75.34,45.12 79.72,40.33C80.73,42.94 80.88,46.77 84.04,47.77C88.2,48.8 92.58,45.75 93.94,41.85C95.28,38.16 94.12,34.25 93.49,30.55Z" style="fill:rgb(255,204,77);fill-rule:nonzero;"/>
</svg>
